X: 10621
M: 2/4
L: 1/16
K: Dmix
(AG) |\
d>Bc>A B>GA>F | (Ad)(cB) A2B>c | d>Bc>A B>GA>F | (Ac)(BA) G2B>c |\
d>Bc>A B>GA>F | A>Bc>d e>fg>e | d>Bc>A B>GA>F | A>cB>A G2 |]
a>g |\
(fd)dd (fd)dd | (Ad)(fa) (ab)(ag) | (fd)dd (fd)dd | (Ad)(ef) g2(ag) |\
(fd)dd (fd)dd | (Ad)(fa) (ab)(ag) | (df)ff (df)ff | (ed)(ef) g2 |]
[fB]>[ec] |\
d>Bc>A B>GF>G | (Ad)(^cd) A2B>c | d>Bc>A B>GF>G | (Ac)(BA) G2B>c |\
d>Bc>A B>GF>G | (AB)(cd) (ef)(ge) | d>Bc>A B>GF>G | (Ac)(BA) G2 |]


